img/wave1_mob.svg

<svg width="360" height="451" viewBox="0 0 360 451" fill="none" xmlns="http://www.w3.org/2000/svg">
<path d="M152.58 161.672C166.745 60.7114 267.128 -28.8389 333.564 -5.45867C368.73 -15.4053 446.529 -35.9382 476.395 -38.4968C513.728 -41.6952 537.244 -53.9853 550.562 -44.8509C563.88 -35.7165 528.887 65.0231 473.552 51.218C418.216 37.4129 282.397 52.8081 217.879 268.355C166.264 440.792 -30.4211 459.38 -122.312 447.12C-146.138 387.509 -176.912 271 -109.394 281.857C-24.9955 295.428 138.415 262.632 152.58 161.672Z" fill="#9A9FFF" fill-opacity="0.05"/>
</svg>

<svg width="360" height="451" fill="none" xmlns="http://www.w3.org/2000/svg"><path d="M152.58 161.672c14.165-100.96 114.548-190.51 180.984-167.13 35.166-9.947 112.965-30.48 142.831-33.039 37.333-3.198 60.849-15.488 74.167-6.354 13.318 9.134-21.675 109.874-77.01 96.069-55.336-13.805-191.155 1.59-255.673 217.137-51.615 172.437-248.3 191.025-340.191 178.765-23.826-59.611-54.6-176.12 12.918-165.263 84.399 13.571 247.809-19.225 261.974-120.185Z" fill="#9A9FFF" fill-opacity=".05"/></svg>
